X: 6
T: Paddy Fahey's
C: Paddy Fahey
Z: Ralex
S: https://thesession.org/tunes/150#setting51470
R: reel
M: 4/4
L: 1/8
K: Gmaj
|:G2 BD GBdB|c2 ag fgdc|BG3 BcdB|cBAG FDcA|
G2 BD GBdB|c2 ag fgdc|BG3 BcdB|cAFA G2 Bc:||
|:g2fa gdBG|FGAB c2 Bc|Aaag a3g|fdad bdad|
g2 fa gdBG|FGAB c2 Bc|d~g3 defd| cAFA G2 Bc:||

%-------------------- TUNE SEPARATOR --------------------%

